X: 1
T: JUNIATA -- HORNPIPE
B: Cole's 1000 Fiddle Tunes
R: hornpipe
M: 2/4
L: 1/16
Z: Contributed 20000422032939 by John Chambers jc:trillian.mit.edu
K: Bb
uF \
| v.B2Bc .d2cB | Bdfg v.f2vdf | bfdf gfdB | cBcd cedc |
|  .B2Bc .d2cB | Bdfg .f2df | gbfd cBcd | B2d2B2 :|
|: vBA \
| v.G2{A}G^F .G2{A}G^F | .G2GA .B2Bc | .d2{e}d^c .d2{e}d^c | d=cBd .f2vBd |
| fgfd .f2df | g^fga .g2bg | fdBd cedc | B2d2B2 :|
